svg/u1f602.svg

<svg viewBox="0 0 128 128" xmlns="http://www.w3.org/2000/svg">
  <g id="facial_expressions">
    <radialGradient id="face_1_" cx="63.6" cy="216.9" gradientTransform="matrix(1 0 0 1 0 -154)" gradientUnits="userSpaceOnUse" r="56.9597">
      <stop offset="0.5" stop-color="#FDE030"/>
      <stop offset="0.92" stop-color="#F7C02B"/>
      <stop offset="1" stop-color="#F4A223"/>
    </radialGradient>
    <path id="face" d="M63.6,118.8c-27.9,0-58-17.5-58-55.9S35.7,7,63.6,7c15.5,0,29.8,5.1,40.4,14.4 c11.5,10.2,17.6,24.6,17.6,41.5s-6.1,31.2-17.6,41.4C93.4,113.6,79,118.8,63.6,118.8z" fill="url(#face_1_)"/>
    <path d="M111.49,29.67c5.33,8.6,8.11,18.84,8.11,30.23c0,16.9-6.1,31.2-17.6,41.4 c-10.6,9.3-25,14.5-40.4,14.5c-18.06,0-37-7.35-48.18-22.94c10.76,17.66,31,25.94,50.18,25.94c15.4,0,29.8-5.2,40.4-14.5 c11.5-10.2,17.6-24.5,17.6-41.4C121.6,50.16,118.13,38.84,111.49,29.67z" fill="#EB8F00"/>
    <path id="left-eyebrow" d="M39.44,31.21C39,30.15,37.8,29.61,36.72,30c-1.62,0.53-3.18,1.22-4.67,2.05 c-3.96,2.18-7.35,5.27-9.89,9c-0.7,0.95-0.52,2.28,0.41,3c0.49,0.41,1.13,0.61,1.77,0.53c0.48-0.07,0.92-0.3,1.26-0.65 c3.84-3.76,8.14-7.02,12.79-9.7l0.11-0.06C39.56,33.6,39.98,32.29,39.44,31.21z" fill="#422B0D"/>
    <path id="left-eyebrow-2" d="M90.69,30.21c0.44-1.06,1.64-1.6,2.72-1.21c1.61,0.52,3.17,1.19,4.66,2 c3.96,2.18,7.35,5.26,9.9,9c0.69,0.95,0.51,2.27-0.41,3c-0.49,0.41-1.13,0.6-1.77,0.53c-0.48-0.07-0.92-0.3-1.26-0.65 c-3.84-3.76-8.14-7.02-12.79-9.7l-0.11-0.06C90.6,32.55,90.18,31.28,90.69,30.21z" fill="#422B0D"/>
    <path d="M63.49,74.7" fill="#422B0D"/>
    <path d="M63.49,74.7" fill="#422B0D"/>
    <path d="M102.07,71.62c-1.4-2.53-4.44-3.64-7.14-2.62c-10.26,2.99-20.9,4.48-31.59,4.43 C52.65,73.48,42.01,71.99,31.75,69c-2.69-1.02-5.73,0.08-7.13,2.6c-1.36,2.51-0.38,5.42,0.77,7.93 c6.42,14.1,20.57,22.54,37.87,22.59h0.16c17.3,0,31.45-8.49,37.88-22.59C102.44,77,103.43,74.13,102.07,71.62z" fill="#422B0D"/>
    <path d="M63.42,100.89" fill="#422B0D"/>
    <path d="M63.49,74.7" fill="#422B0D"/>
    <path d="M63.49,74.7" fill="#422B0D"/>
    <path d="M63.42,100.89" fill="#422B0D"/>
    <path d="M79.35,98.14c-0.37-0.34-0.75-0.65-1.13-1c-4.08-3.59-9.36-5.52-14.8-5.41 C57.82,91.64,52.37,93.5,48,97c-0.38,0.31-0.78,0.61-1.15,1s-0.57,0.67-0.81,1c5.5,2.15,11.36,3.25,17.27,3.22h0.16 c5.66,0,11.27-1.01,16.57-3C79.84,98.84,79.61,98.48,79.35,98.14z" fill="#ED7770"/>
    <path d="M94.93,69c-10.26,2.99-20.9,4.48-31.59,4.43C52.65,73.48,42.01,71.99,31.75,69 c-2.69-1.02-5.73,0.08-7.13,2.6c-0.2,0.38-0.36,0.78-0.46,1.19c0.33,0.17,0.71,0.34,1.16,0.52c12.04,6.03,25.35,9.09,38.81,8.93 c12.91,0.15,25.67-2.66,37.33-8.2c0.47-0.2,0.86-0.39,1.21-0.57c-0.08-0.65-0.29-1.29-0.6-1.87C100.67,69.08,97.63,67.97,94.93,69z " fill="#FFFFFF"/>
    <path d="M102.11,71.63c-1.42-2.53-4.47-3.65-7.19-2.63c-10.26,2.99-20.9,4.48-31.58,4.43 C52.65,73.48,42.01,71.99,31.75,69c-2.69-1.02-5.73,0.08-7.13,2.6c-1.36,2.51-0.38,5.42,0.77,7.93c0.51,1.13,1.08,2.24,1.71,3.31 c0,0-2.1-7.78-0.28-10.04c0.62-0.96,1.66-1.56,2.8-1.62c0.47,0,0.93,0.08,1.38,0.22c10.44,3.07,21.27,4.62,32.16,4.6h0.35 c10.89,0.02,21.72-1.53,32.16-4.6c0.45-0.14,0.91-0.22,1.38-0.22c1.14,0.06,2.19,0.66,2.81,1.62c1.85,2.26-0.28,10.07-0.28,10.07 c0.62-1.07,1.24-2.17,1.76-3.31C102.48,77.05,103.47,74.15,102.11,71.63z" fill="#EB8F00"/>
    <g id="tears-of-joy">
      <g id="eyes">
        <path d="M100.69,57.09c0,0,17,0.47,23.79,13c2.84,5.26,3,14-2.88,17.19c-7.11,3.91-13.78-1.64-14.63-7.56 C104.68,63.66,100.69,57.09,100.69,57.09z" fill="#29B6F6"/>
        <path d="M123.26,81.27c-0.67,1.22-2.14,1.75-3.43,1.24c-1.15-0.61-1.46-2.08-1.64-3.37l-0.55-4 c-0.23-1.59-1.85-6.74-0.15-7.58c1.35-0.66,3.94,1.16,4.7,2.21C123.86,72.15,124.65,78.93,123.26,81.27z" fill="#81D4FA"/>
        <path d="M117.49,67.61c1.35-0.66,3.94,1.16,4.7,2.21c1.67,2.33,2.46,9.11,1.07,11.45 c-0.67,1.22-2.14,1.75-3.43,1.24c-1.15-0.61-1.46-2.08-1.64-3.37l-0.55-4" fill="#81D4FA"/>
        <path d="M27.31,57.09c0,0-17,0.47-23.79,13C0.68,75.3,0.57,84,6.4,87.23c7.11,3.91,13.78-1.64,14.63-7.56 C23.32,63.66,27.31,57.09,27.31,57.09z" fill="#29B6F6"/>
        <path d="M4.74,81.27c0.67,1.22,2.14,1.75,3.43,1.24c1.15-0.61,1.46-2.08,1.64-3.37l0.55-4 c0.23-1.59,1.85-6.74,0.15-7.58c-1.35-0.66-3.94,1.16-4.7,2.21C4.14,72.15,3.35,78.93,4.74,81.27z" fill="#81D4FA"/>
        <path d="M48.15,55.87L48,55.65l-0.21-0.27c-0.08-0.11-0.16-0.2-0.26-0.29l-0.61-0.62 c-0.26-0.26-0.55-0.52-0.87-0.79c-0.66-0.57-1.4-1.03-2.2-1.39c-0.77-0.34-1.61-0.52-2.45-0.52c0.35,0,0.09,0,0.17,0H41 c-0.1-0.01-0.19-0.01-0.29,0c-0.18,0.02-0.36,0.05-0.54,0.09c-0.41,0.1-0.82,0.23-1.21,0.39c-0.8,0.35-1.54,0.82-2.2,1.39 c-0.54,0.45-1.05,0.94-1.52,1.47l-0.57,0.64l-0.3,0.34c-1.21,1.38-3.3,1.52-4.68,0.32c-1.03-0.9-1.4-2.35-0.94-3.64l0.11-0.32 c0.09-0.21,0.17-0.53,0.36-0.91c0.46-1.08,1.06-2.11,1.78-3.04c1.75-2.31,4.21-3.99,7-4.79c0.57-0.15,1.15-0.26,1.74-0.34 c0.3,0,0.74-0.09,0.87-0.09h0.76c1.13,0.02,2.26,0.18,3.36,0.46c1.05,0.29,2.05,0.71,3,1.25c1.55,0.91,2.91,2.11,4,3.54 c0.74,0.97,1.37,2.02,1.86,3.14c0.08,0.16,0.15,0.32,0.19,0.49c0.05,0.13,0.08,0.24,0.11,0.33l0.09,0.27 c0.57,1.77-0.4,3.67-2.17,4.24c-1.33,0.43-2.8-0.01-3.67-1.1L48.15,55.87z" fill="#422B0D"/>
        <path d="M93.48,55.87l-0.18-0.22l-0.21-0.27c-0.08-0.11-0.16-0.2-0.26-0.29l-0.62-0.62 c-0.27-0.28-0.56-0.54-0.86-0.79c-0.66-0.57-1.4-1.03-2.2-1.39c-0.77-0.34-1.61-0.52-2.45-0.52c0.35,0,0.09,0,0.17,0h-0.58 c-0.1-0.01-0.19-0.01-0.29,0c-0.18,0.02-0.36,0.05-0.54,0.09c-0.41,0.1-0.82,0.23-1.21,0.39c-0.81,0.37-1.57,0.85-2.25,1.43 c-0.54,0.46-1.04,0.95-1.51,1.47l-0.57,0.64l-0.3,0.34c-1.21,1.38-3.3,1.52-4.68,0.32c-1.03-0.9-1.4-2.35-0.94-3.64l0.11-0.32 c0.09-0.21,0.17-0.53,0.35-0.91c0.48-1.1,1.09-2.13,1.83-3.08c1.75-2.31,4.21-3.99,7-4.79c0.57-0.15,1.15-0.26,1.74-0.34 c0.3,0,0.74-0.09,0.87-0.09h0.76c1.13,0.02,2.26,0.18,3.36,0.46c1.04,0.3,2.04,0.72,2.98,1.26c1.55,0.9,2.91,2.11,4,3.54 c0.42,0.54,0.79,1.11,1.13,1.7c0.27,0.47,0.51,0.95,0.73,1.44c0.08,0.16,0.14,0.32,0.19,0.49c0,0.13,0.08,0.24,0.11,0.33 l0.09,0.27c0.57,1.77-0.4,3.67-2.17,4.24c-1.33,0.43-2.8-0.01-3.67-1.1L93.48,55.87z" fill="#422B0D"/>
      </g>
    </g>
  </g>
</svg>

<svg viewBox="0 0 128 128" xmlns="http://www.w3.org/2000/svg">
  <defs>
    <radialGradient id="face_1_" cx="63.6" cy="62.9" gradientUnits="userSpaceOnUse" r="56.9597">
      <stop offset="0.5" stop-color="#FDE030"/>
      <stop offset="0.92" stop-color="#F7C02B"/>
      <stop offset="1" stop-color="#F4A223"/>
    </radialGradient>
  </defs>
  <path id="face" d="M63.6,118.8 C35.7,118.8 5.6,101.3 5.6,62.9 C5.6,24.5 35.7,7 63.6,7 C79.1,7 93.4,12.1 104,21.4 C115.5,31.6 121.6,46 121.6,62.9 C121.6,79.8 115.5,94.1 104,104.3 C93.4,113.6 79,118.8 63.6,118.8 Z" fill="url(#face_1_)"/>
  <path d="M111.49,29.67 C116.82,38.27 119.6,48.51 119.6,59.9 C119.6,76.8 113.5,91.1 102,101.3 C91.4,110.6 77,115.8 61.6,115.8 C43.54,115.8 24.6,108.45 13.42,92.86 C24.18,110.52 44.42,118.8 63.6,118.8 C79,118.8 93.4,113.6 104,104.3 C115.5,94.1 121.6,79.8 121.6,62.9 C121.6,50.16 118.13,38.84 111.49,29.67 Z" fill="#EB8F00"/>
  <path id="left-eyebrow" d="M39.44,31.21 C39,30.15 37.8,29.61 36.72,30 C35.1,30.53 33.54,31.22 32.05,32.05 C28.09,34.23 24.7,37.32 22.16,41.05 C21.46,42 21.64,43.33 22.57,44.05 C23.06,44.46 23.7,44.66 24.34,44.58 C24.82,44.51 25.26,44.28 25.6,43.93 C29.44,40.17 33.74,36.91 38.39,34.23 L38.5,34.17 C39.56,33.6 39.98,32.29 39.44,31.21 Z" fill="#422B0D"/>
  <path id="left-eyebrow-2" d="M90.69,30.21 C91.13,29.15 92.33,28.61 93.41,29 C95.02,29.52 96.58,30.19 98.07,31 C102.03,33.18 105.42,36.26 107.97,40 C108.66,40.95 108.48,42.27 107.56,43 C107.07,43.41 106.43,43.6 105.79,43.53 C105.31,43.46 104.87,43.23 104.53,42.88 C100.69,39.12 96.39,35.86 91.74,33.18 L91.63,33.12 C90.6,32.55 90.18,31.28 90.69,30.21 Z" fill="#422B0D"/>
  <path d="M102.07,71.62 C100.67,69.09 97.63,67.98 94.93,69 C84.67,71.99 74.03,73.48 63.34,73.43 C52.65,73.48 42.01,71.99 31.75,69 C29.06,67.98 26.02,69.08 24.62,71.6 C23.26,74.11 24.24,77.02 25.39,79.53 C31.81,93.63 45.96,102.07 63.26,102.12 L63.42,102.12 C80.72,102.12 94.87,93.63 101.3,79.53 C102.44,77 103.43,74.13 102.07,71.62 Z" fill="#422B0D"/>
  <path d="M79.35,98.14 C78.98,97.8 78.6,97.49 78.22,97.14 C74.14,93.55 68.86,91.62 63.42,91.73 C57.82,91.64 52.37,93.5 48,97 C47.62,97.31 47.22,97.61 46.85,98 C46.48,98.39 46.28,98.67 46.04,99 C51.54,101.15 57.4,102.25 63.31,102.22 L63.47,102.22 C69.13,102.22 74.74,101.21 80.04,99.22 C79.84,98.84 79.61,98.48 79.35,98.14 Z" fill="#ED7770"/>
  <path d="M94.93,69 C84.67,71.99 74.03,73.48 63.34,73.43 C52.65,73.48 42.01,71.99 31.75,69 C29.06,67.98 26.02,69.08 24.62,71.6 C24.42,71.98 24.26,72.38 24.16,72.79 C24.49,72.96 24.87,73.13 25.32,73.31 C37.36,79.34 50.67,82.4 64.13,82.24 C77.04,82.39 89.8,79.58 101.46,74.04 C101.93,73.84 102.32,73.65 102.67,73.47 C102.59,72.82 102.38,72.18 102.07,71.6 C100.67,69.08 97.63,67.97 94.93,69 Z" fill="#FFFFFF"/>
  <path d="M102.11,71.63 C100.69,69.1 97.64,67.98 94.92,69 C84.66,71.99 74.02,73.48 63.34,73.43 C52.65,73.48 42.01,71.99 31.75,69 C29.06,67.98 26.02,69.08 24.62,71.6 C23.26,74.11 24.24,77.02 25.39,79.53 C25.9,80.66 26.47,81.77 27.1,82.84 C27.1,82.84 25,75.06 26.82,72.8 C27.44,71.84 28.48,71.24 29.62,71.18 C30.09,71.18 30.55,71.26 31,71.4 C41.44,74.47 52.27,76.02 63.16,76 L63.51,76 C74.4,76.02 85.23,74.47 95.67,71.4 C96.12,71.26 96.58,71.18 97.05,71.18 C98.19,71.24 99.24,71.84 99.86,72.8 C101.71,75.06 99.58,82.87 99.58,82.87 C100.2,81.8 100.82,80.7 101.34,79.56 C102.48,77.05 103.47,74.15 102.11,71.63 Z" fill="#EB8F00"/>
  <path d="M100.69,57.09 C100.69,57.09 117.69,57.56 124.48,70.09 C127.32,75.35 127.48,84.09 121.6,87.28 C114.49,91.19 107.82,85.64 106.97,79.72 C104.68,63.66 100.69,57.09 100.69,57.09 Z" fill="#29B6F6"/>
  <path d="M123.26,81.27 C122.59,82.49 121.12,83.02 119.83,82.51 C118.68,81.9 118.37,80.43 118.19,79.14 L117.64,75.14 C117.41,73.55 115.79,68.4 117.49,67.56 C118.84,66.9 121.43,68.72 122.19,69.77 C123.86,72.15 124.65,78.93 123.26,81.27 Z" fill="#81D4FA"/>
  <path d="M117.49,67.61 C118.84,66.95 121.43,68.77 122.19,69.82 C123.86,72.15 124.65,78.93 123.26,81.27 C122.59,82.49 121.12,83.02 119.83,82.51 C118.68,81.9 118.37,80.43 118.19,79.14 L117.64,75.14" fill="#81D4FA"/>
  <path d="M27.31,57.09 C27.31,57.09 10.31,57.56 3.52,70.09 C0.68,75.3 0.57,84 6.4,87.23 C13.51,91.14 20.18,85.59 21.03,79.67 C23.32,63.66 27.31,57.09 27.31,57.09 Z" fill="#29B6F6"/>
  <path d="M4.74,81.27 C5.41,82.49 6.88,83.02 8.17,82.51 C9.32,81.9 9.63,80.43 9.81,79.14 L10.36,75.14 C10.59,73.55 12.21,68.4 10.51,67.56 C9.16,66.9 6.57,68.72 5.81,69.77 C4.14,72.15 3.35,78.93 4.74,81.27 Z" fill="#81D4FA"/>
  <path d="M48.15,55.87 L48,55.65 L47.79,55.38 C47.71,55.27 47.63,55.18 47.53,55.09 L46.92,54.47 C46.66,54.21 46.37,53.95 46.05,53.68 C45.39,53.11 44.65,52.65 43.85,52.29 C43.08,51.95 42.24,51.77 41.4,51.77 C41.75,51.77 41.49,51.77 41.57,51.77 L41,51.77 C40.9,51.76 40.81,51.76 40.71,51.77 C40.53,51.79 40.35,51.82 40.17,51.86 C39.76,51.96 39.35,52.09 38.96,52.25 C38.16,52.6 37.42,53.07 36.76,53.64 C36.22,54.09 35.71,54.58 35.24,55.11 L34.67,55.75 L34.37,56.09 C33.16,57.47 31.07,57.61 29.69,56.41 C28.66,55.51 28.29,54.06 28.75,52.77 L28.86,52.45 C28.95,52.24 29.03,51.92 29.22,51.54 C29.68,50.46 30.28,49.43 31,48.5 C32.75,46.19 35.21,44.51 38,43.71 C38.57,43.56 39.15,43.45 39.74,43.37 C40.04,43.37 40.48,43.28 40.61,43.28 L41.37,43.28 C42.5,43.3 43.63,43.46 44.73,43.74 C45.78,44.03 46.78,44.45 47.73,44.99 C49.28,45.9 50.64,47.1 51.73,48.53 C52.47,49.5 53.1,50.55 53.59,51.67 C53.67,51.83 53.74,51.99 53.78,52.16 C53.83,52.29 53.86,52.4 53.89,52.49 L53.98,52.76 C54.55,54.53 53.58,56.43 51.81,57 C50.48,57.43 49.01,56.99 48.14,55.9 L48.15,55.87 Z" fill="#422B0D"/>
  <path d="M93.48,55.87 L93.3,55.65 L93.09,55.38 C93.01,55.27 92.93,55.18 92.83,55.09 L92.21,54.47 C91.94,54.19 91.65,53.93 91.35,53.68 C90.69,53.11 89.95,52.65 89.15,52.29 C88.38,51.95 87.54,51.77 86.7,51.77 C87.05,51.77 86.79,51.77 86.87,51.77 L86.29,51.77 C86.19,51.76 86.1,51.76 86,51.77 C85.82,51.79 85.64,51.82 85.46,51.86 C85.05,51.96 84.64,52.09 84.25,52.25 C83.44,52.62 82.68,53.1 82,53.68 C81.46,54.14 80.96,54.63 80.49,55.15 L79.92,55.79 L79.62,56.13 C78.41,57.51 76.32,57.65 74.94,56.45 C73.91,55.55 73.54,54.1 74,52.81 L74.11,52.49 C74.2,52.28 74.28,51.96 74.46,51.58 C74.94,50.48 75.55,49.45 76.29,48.5 C78.04,46.19 80.5,44.51 83.29,43.71 C83.86,43.56 84.44,43.45 85.03,43.37 C85.33,43.37 85.77,43.28 85.9,43.28 L86.66,43.28 C87.79,43.3 88.92,43.46 90.02,43.74 C91.06,44.04 92.06,44.46 93,45 C94.55,45.9 95.91,47.11 97,48.54 C97.42,49.08 97.79,49.65 98.13,50.24 C98.4,50.71 98.64,51.19 98.86,51.68 C98.94,51.84 99,52 99.05,52.17 C99.05,52.3 99.13,52.41 99.16,52.5 L99.25,52.77 C99.82,54.54 98.85,56.44 97.08,57.01 C95.75,57.44 94.28,57 93.41,55.91 L93.48,55.87 Z" fill="#422B0D"/>
</svg>
